X: 3
T: Gray's Fancy
R: jig
M: 6/8
L: 1/8
Z: 2011 John Chambers <jc:trillian.mit.edu>
B: William Randall eds "Twenty Four Country Dances", London 1771, p.4
K: Bb
|: B,3 DFB | dfe dcB | C3 EAc | edc cBA |\
B3 DFB | B3 EGB | Aec AFA | B3 B,3 :|
|: d3 fdB | c3 fcA | Bba gaf | =efd c3 |\
f=ef cd_e | d3 b2a | g2f gf=e | f3 F3 |
fdf _ece | def GAB | cde edc | gec AGF |\
B,3 DFB | dfe dcB | cec AFA | B3 B,3 :|
% - - - - - - - - - - - - - - - - - - - - - - - - -
%%begintext align
%% Hands across quite round and Back again
%% lead down 1 Cu. up again cast off Right Hands
%% & Left at top set corners & turn lead outsides
%%endtext
% - - - - - - - - - - - - - - - - - - - - - - - - -
